images/icon-goal.svg

<svg fill="none" height="40" viewBox="0 0 40 40" width="40" xmlns="http://www.w3.org/2000/svg"><g fill="#ff512f"><path d="m32.5056 7.49367h-.0022l3.7176.74307c.1997.03993.3638.18632.4215.38374.0291.0959.0317.19789.0075.29515-.0242.09725-.0744.18612-.1451.25716l-3.0455 3.04771c-.3643.3637-.8582.5679-1.373.5679h-2.5242l-6.3439 6.346c.121.457.1433.9346.0653 1.4008-.078.4663-.2545.9106-.5176 1.3033-.2632.3927-.607.7248-1.0086.9742s-.8518.4104-1.3204.4722c-.4687.0618-.9452.023-1.3977-.1137-.4525-.1368-.8707-.3685-1.2267-.6795-.3559-.3111-.6415-.6945-.8377-1.1246s-.2985-.8971-.3001-1.3698c.0003-.5104.118-1.0139.344-1.4716.2259-.4577.554-.8573.959-1.168.405-.3106.876-.524 1.3766-.6236s1.0174-.0828 1.5105.0491l6.346-6.3483v-2.52201c0-.5146.2041-1.00925.5679-1.37302l3.0477-3.04772c.0711-.0707.1599-.12082.2572-.14503.0972-.02422.1992-.02162.2951.0075.1974.05768.3438.22182.3838.42145z"/><path d="m6.69406 19.9971c.00228 1.9031.41267 3.7835 1.20349 5.5145s1.94368 3.2723 3.38075 4.5198c1.4372 1.2476 3.1251 2.1724 4.9501 2.7121 1.8249.5398 3.7444.6818 5.6289.4167 1.8845-.2652 3.6902-.9314 5.2953-1.9538 1.6052-1.0224 2.9724-2.3771 4.0094-3.9728 1.0371-1.5957 1.7199-3.3952 2.0023-5.2772s.158-3.8027-.365-5.6325c-.0734-.2138-.1026-.4403-.0857-.6657s.0795-.445.184-.6454c.1045-.2005.2487-.3775.4238-.5205.1751-.1429.3774-.2487.5947-.311.2173-.0622.445-.0796.6692-.051.2243.0286.4403.1025.6351.2172.1947.1148.3641.2679.4977.4502.1337.1823.2289.3899.2798.6101 1.0126 3.5435.8202 7.323-.5469 10.7454-1.3672 3.4224-3.8318 6.2941-7.0072 8.1647-3.1754 1.8705-6.8819 2.634-10.5381 2.1706-3.6561-.4633-7.055-2.1273-9.66338-4.7308-2.60555-2.6078-4.27129-6.007-4.73571-9.664-.46441-3.657.2988-7.3646 2.16982-10.5409 1.87102-3.17621 4.74387-5.64115 8.16757-7.00779 3.4237-1.36665 7.2043-1.55759 10.7482-.54287.422.12335.778.40873.9902.79376.2122.38504.2634.83842.1423 1.26107-.121.42265-.4044.78019-.7883.99451-.3839.21431-.837.26795-1.2603.14921-1.9817-.56858-4.0684-.66907-6.0956-.29353-2.0272.37553-3.9394 1.21682-5.586 2.45754-1.6465 1.2407-2.98239 2.847-3.90221 4.6921s-1.39848 3.8786-1.39823 5.9403z"/><path d="m13.3478 19.9973c.0001 1.2124.3313 2.4018.9577 3.4398s1.5244 1.8853 2.597 2.4505 2.2792.8268 3.4896.7566 2.3786-.4695 3.3787-1.1548c.9999-.6871 1.793-1.6345 2.2934-2.7397.5004-1.1053.6892-2.3263.5458-3.531-.0387-.2923.0011-.5897.1155-.8616.1143-.2718.2991-.5082.5352-.6849s.5151-.2873.8081-.3203c.2931-.0331.5896.0126.8592.1322.2695.1181.5028.3056.6762.5433s.2807.5171.3109.8098c.241 2.0586-.1649 4.1413-1.1612 5.9588-.9964 1.8175-2.5338 3.2798-4.399 4.1839-1.8651.9041-3.9654 1.2051-6.0094.8613s-3.9303-1.3154-5.3971-2.7799c-1.4667-1.4645-2.4411-3.3493-2.7881-5.3928-.34687-2.0435-.049-4.1443.8522-6.0108.9013-1.8665 2.3612-3.4062 4.1772-4.4053s3.898-1.40808 5.9571-1.1702c.2204.0205.4346.0847.6299.189s.3679.2466.5075.4184c.1396.1719.2435.3698.3057.5824.0621.2125.0811.4353.056.6553s-.0938.4327-.2022.6258-.2543.3626-.429.4985c-.1748.136-.3749.2357-.5887.2934-.2138.0576-.4369.072-.6563.0422-.9324-.1082-1.8771-.018-2.7722.2648-.895.2827-1.7201.7517-2.421 1.3759-.701.6243-1.2619 1.3898-1.646 2.2463-.3841.8564-.5827 1.7844-.5827 2.7231z"/></g></svg>

<svg width="40" height="40" viewBox="0 0 40 40" fill="none" xmlns="http://www.w3.org/2000/svg">
<path d="M32.5056 7.49367H32.5034L36.221 8.23674C36.4207 8.27667 36.5848 8.42306 36.6425 8.62048C36.6716 8.71638 36.6742 8.81837 36.65 8.91563C36.6258 9.01288 36.5756 9.10175 36.5049 9.17279L33.4594 12.2205C33.0951 12.5842 32.6012 12.7884 32.0864 12.7884H29.5622L23.2183 19.1344C23.3393 19.5914 23.3616 20.069 23.2836 20.5352C23.2056 21.0015 23.0291 21.4458 22.766 21.8385C22.5028 22.2312 22.159 22.5633 21.7574 22.8127C21.3558 23.0621 20.9056 23.2231 20.437 23.2849C19.9683 23.3467 19.4918 23.3079 19.0393 23.1712C18.5868 23.0344 18.1686 22.8027 17.8126 22.4917C17.4567 22.1806 17.1711 21.7972 16.9749 21.3671C16.7787 20.937 16.6764 20.47 16.6748 19.9973C16.6751 19.4869 16.7928 18.9834 17.0188 18.5257C17.2447 18.068 17.5728 17.6684 17.9778 17.3577C18.3828 17.0471 18.8538 16.8337 19.3544 16.7341C19.855 16.6345 20.3718 16.6513 20.8649 16.7832L27.2109 10.4349V7.91289C27.2109 7.39829 27.415 6.90364 27.7788 6.53987L30.8265 3.49215C30.8976 3.42145 30.9864 3.37133 31.0837 3.34712C31.1809 3.3229 31.2829 3.3255 31.3788 3.35462C31.5762 3.4123 31.7226 3.57644 31.7626 3.77607L32.5056 7.49367Z" fill="#FF512F"/>
<path d="M6.69406 19.9971C6.69634 21.9002 7.10673 23.7806 7.89755 25.5116C8.68837 27.2426 9.84123 28.7839 11.2783 30.0314C12.7155 31.279 14.4034 32.2038 16.2284 32.7435C18.0533 33.2833 19.9728 33.4253 21.8573 33.1602C23.7418 32.895 25.5475 32.2288 27.1526 31.2064C28.7578 30.184 30.125 28.8293 31.162 27.2336C32.1991 25.6379 32.8819 23.8384 33.1643 21.9564C33.4467 20.0744 33.3223 18.1537 32.7993 16.3239C32.7259 16.1101 32.6967 15.8836 32.7136 15.6582C32.7305 15.4328 32.7931 15.2132 32.8976 15.0128C33.0021 14.8123 33.1463 14.6353 33.3214 14.4923C33.4965 14.3494 33.6988 14.2436 33.9161 14.1813C34.1334 14.1191 34.3611 14.1017 34.5853 14.1303C34.8096 14.1589 35.0256 14.2328 35.2204 14.3475C35.4151 14.4623 35.5845 14.6154 35.7181 14.7977C35.8518 14.98 35.947 15.1876 35.9979 15.4078C37.0105 18.9513 36.8181 22.7308 35.451 26.1532C34.0838 29.5756 31.6192 32.4473 28.4438 34.3179C25.2684 36.1884 21.5619 36.9519 17.9057 36.4885C14.2496 36.0252 10.8507 34.3612 8.24232 31.7577C5.63677 29.1499 3.97103 25.7507 3.50661 22.0937C3.0422 18.4367 3.80541 14.7291 5.67643 11.5528C7.54745 8.37659 10.4203 5.91165 13.844 4.54501C17.2677 3.17836 21.0483 2.98742 24.5922 4.00214C25.0142 4.12549 25.3702 4.41087 25.5824 4.7959C25.7946 5.18094 25.8458 5.63432 25.7247 6.05697C25.6037 6.47962 25.3203 6.83716 24.9364 7.05148C24.5525 7.26579 24.0994 7.31943 23.6761 7.20069C21.6944 6.63211 19.6077 6.53162 17.5805 6.90716C15.5533 7.28269 13.6411 8.12398 11.9945 9.3647C10.348 10.6054 9.01211 12.2117 8.09229 14.0568C7.17247 15.9019 6.69381 17.9354 6.69406 19.9971Z" fill="#FF512F"/>
<path d="M13.3478 19.9973C13.3479 21.2097 13.6791 22.3991 14.3055 23.4371C14.9319 24.4751 15.8299 25.3224 16.9025 25.8876C17.9751 26.4528 19.1817 26.7144 20.3921 26.6442C21.6025 26.574 22.7707 26.1747 23.7708 25.4894C24.7707 24.8023 25.5638 23.8549 26.0642 22.7497C26.5646 21.6444 26.7534 20.4234 26.61 19.2187C26.5713 18.9264 26.6111 18.629 26.7255 18.3571C26.8398 18.0853 27.0246 17.8489 27.2607 17.6722C27.4968 17.4955 27.7758 17.3849 28.0688 17.3519C28.3619 17.3188 28.6584 17.3645 28.928 17.4841C29.1975 17.6022 29.4308 17.7897 29.6042 18.0274C29.7776 18.2651 29.8849 18.5445 29.9151 18.8372C30.1561 20.8958 29.7502 22.9785 28.7539 24.796C27.7575 26.6135 26.2201 28.0758 24.3549 28.9799C22.4898 29.884 20.3895 30.185 18.3455 29.8412C16.3015 29.4974 14.4152 28.5258 12.9484 27.0613C11.4817 25.5968 10.5073 23.712 10.1603 21.6685C9.81343 19.625 10.1113 17.5242 11.0125 15.6577C11.9138 13.7912 13.3737 12.2515 15.1897 11.2524C17.0057 10.2533 19.0877 9.84432 21.1468 10.0822C21.3672 10.1027 21.5814 10.1669 21.7767 10.2712C21.972 10.3755 22.1446 10.5178 22.2842 10.6896C22.4238 10.8615 22.5277 11.0594 22.5899 11.272C22.652 11.4845 22.671 11.7073 22.6459 11.9273C22.6208 12.1473 22.5521 12.36 22.4437 12.5531C22.3353 12.7462 22.1894 12.9157 22.0147 13.0516C21.8399 13.1876 21.6398 13.2873 21.426 13.345C21.2122 13.4026 20.9891 13.417 20.7697 13.3872C19.8373 13.279 18.8926 13.3692 17.9975 13.652C17.1025 13.9347 16.2774 14.4037 15.5765 15.0279C14.8755 15.6522 14.3146 16.4177 13.9305 17.2742C13.5464 18.1306 13.3478 19.0586 13.3478 19.9973Z" fill="#FF512F"/>
</svg>
